material/.icons/material/home-remove-outline.svg

<svg xmlns="http://www.w3.org/2000/svg" viewBox="0 0 24 24"><path d="M12 2L2 12h2v9h16v-9h2M12 5l6 6v8H6v-8m8.12-.54l1.42 1.42L13.41 14l2.13 2.12-1.42 1.42L12 15.41l-2.12 2.13-1.41-1.42L10.59 14l-2.12-2.12 1.41-1.41L12 12.59l2.12-2.13z"/></svg>

<?xml version="1.0" encoding="UTF-8"?><!DOCTYPE svg PUBLIC "-//W3C//DTD SVG 1.1//EN" "http://www.w3.org/Graphics/SVG/1.1/DTD/svg11.dtd"><svg xmlns="http://www.w3.org/2000/svg" xmlns:xlink="http://www.w3.org/1999/xlink" version="1.1" id="mdi-home-remove-outline" width="24" height="24" viewBox="0 0 24 24"><path d="M12 2L2 12H4V21H20V12H22M12 5L18 11V19H6V11M14.12 10.46L15.54 11.88L13.41 14L15.54 16.12L14.12 17.54L12 15.41L9.88 17.54L8.47 16.12L10.59 14L8.47 11.88L9.88 10.47L12 12.59L14.12 10.46Z" /></svg>
